elements/rpg-character/lib/shirt/0.svg

<svg xmlns="http://www.w3.org/2000/svg" fill="none" width="113" height="142" viewBox="0 0 113 142"><path d="M28 97V87h5v10h-5Zm10 15h35V87H58v2h-2v2h-3v1h-5v-1h-3v-2h-2v-2h-5v25Zm45-15h-5v-5h5v5Z" fill="#3D3D3D"/><path d="M68 87h5v25h-5V88h-9v2h-2v2h-3v1h-7v-1h-3v-2h-2v-2h-4v-1h5v2h2v2h3v1h5v-1h3v-2h2v-2h10Zm10 10v-5h5v5h-5Zm-50 0V87h5v10h-5Z" fill="#2E2E2E"/></svg>

<svg width="113" height="142" viewBox="0 0 113 142" fill="none" xmlns="http://www.w3.org/2000/svg">
<path d="M28 97V87H33V97H28Z" fill="#3D3D3D"/>
<path d="M38 112H73V87H58V89H56V91H53V92H48V91H45V89H43V87H38V112Z" fill="#3D3D3D"/>
<path d="M83 97H78V92H83V97Z" fill="#3D3D3D"/>
<path d="M68 87H73V112H68V88H59V90H57V92H54V93H47V92H44V90H42V88H38V87H43V89H45V91H48V92H53V91H56V89H58V87H68Z" fill="#2E2E2E"/>
<path d="M78 97V92H83V97H78Z" fill="#2E2E2E"/>
<path d="M28 97V87H33V97H28Z" fill="#2E2E2E"/>
</svg>
